X:222
T:Sugar Hill Ramble
C:David Grisman arr. by Frank Solivan II
N:TablEdited by Greg Rohrer grrohrer@hotmail.com
L:1/8
Q:1/4=230
M:4/4
K:C
_B,2 [_bdFB,][bdF] B,2 [bdFB,][bdF] | _B,2 [_bdFB,][bdF] FA _Bc | "Bb"d4 d^d =d_B | 
F6 F2 | "D#"GF ^D4 DD | ^D2 DD D4 | "F"[f6c6] c_B | A4 FG F^D | "Bb"D4 D^D =DC | 
_B,2 B,2 FA _Bc | d2 d2 d^d =d_B | F6 F2 | "D#"GF ^D4 DD | ^D2 DD D4 | {B}"F"c2 f2 c_B A2 | 
{E}F2 _B2 F^D =D2 | "Bb"_B,4 B,D ^DF | _B4 [B4F4] | "Gm"[_B2G2] [BG][BG] [B2G2] c2 | 
[g2d2] [gd][gd] [g2d2] [g2d2] | "F"c_B AG [A2F2] [AF][AF] | [A2F2] [AF][AF] [A2F2] [A2F2] | 
"Gm"[_B2G2] [BG][BG] [B2G2] c2 | [g2d2] [gd][gd] [g2d2] [g2d2] | "F"c_B AG FD [A2F2] | 
"Gm"[_B2G2] [BG][BG] [B2G2] [A2F2] | [_B4G4] GB c2 | [g2d2] [gd][gd] [g2d2] [g2d2] | 
"F"c_B AG FG [A2F2] | z2 [AF][AF] [A2F2] [A2F2] | "Gm"[_B4G4] GB cA | [g2d2] [gd][gd] [g2d2] [g2d2] | 
"F"c_B AG FD F2 | "D"[A8^F8] | DE ^FA "F"dc _BA | "Gm"G_B AG "F"F^D =DC | "Bb"_B,2 B,2 d^d =d_B | 
F6 F2 | "D#"GF ^D4 DD | ^D2 DD D4 | "F"[f6c6] c_B | A4 FG F^D | "Bb"D4 D^D =DC | 
_B,2 B,2 FA _Bc | d2 d2 d^d =d_B | F6 F2 | "D#"GF ^D4 DD | ^D2 DD D4 | {B}"F"c2 f2 c_B A2 | 
{E}F2 _B2 F^D =D2 | "Bb"_B,D3 ^D2 E2 | FG A2 _B4 | [_b8d8F8_B,8] | 
 

